X:51
M:6/4
L:1/4
Q:3/4=85
K:GMin
g/f/ | gdbe>dc | d>cBABG | F>GAD2g/f/ | gdBe3 | A3d>ed/c/ | B2GG2 ||

